!!!OTL: Changgong ge
!!!ARE: Asia, China, Fujian, Quanzhou
!! II, 594
!!!SCT: C1530
!!!YEM: Copyright 1995, estate of Helmut Schaffrath.
**kern
*ICvox
*Ivox
*M2/4
*k[f#c#g#d#]
*E:
{8b
4b
8cc#
=1
4b
8g#
8f#
=2
8e
4f#
8g#
=3
2f#}
=4
{8b
4b
8cc#
=5
4b
8g#
8f#
=6
8e
4f#
8g#
=7
8.f#
16g#}
{8e
8f#
=8
8.e
16g#
16f#
16g#
8e
=9
8r
4e
8c#
=10
4B}
{8f#
8g#
=11
8.e
16g#
8f#
8e
=12
8r
4e
8c#
=13
2B}
==
!!!AGN: Xiaodiao. Changgong ku
!!!AMT: simple duple
!!!AIN: vox
!!!EED: Helmut Schaffrath
!!!EEV: 1.0
*-
